Newaita/actions/32/document-encrypted.svg

<?xml version="1.0" encoding="UTF-8"?>
<svg xmlns="http://www.w3.org/2000/svg" xmlns:xlink="http://www.w3.org/1999/xlink" width="32pt" height="32pt" viewBox="0 0 32 32" version="1.1">
<g id="surface1">
<path style=" stroke:none;fill-rule:nonzero;fill:rgb(25.882354%,25.882354%,25.882354%);fill-opacity:1;" d="M 15.800781 1.574219 C 11.445312 1.574219 7.9375 5.113281 7.9375 9.511719 L 7.9375 16.125 L 9.921875 16.125 L 9.921875 8.851562 C 9.921875 5.917969 12.578125 3.558594 15.875 3.558594 C 19.175781 3.558594 21.832031 5.917969 21.832031 8.851562 L 21.832031 16.125 L 23.816406 16.125 L 23.816406 9.511719 C 23.816406 5.113281 20.308594 1.574219 15.953125 1.574219 Z M 15.800781 1.574219 "/>
<path style=" stroke:none;fill-rule:nonzero;fill:rgb(14.901961%,65.098041%,60.392159%);fill-opacity:1;" d="M 15.875 20.09375 C 14.777344 20.09375 13.890625 20.980469 13.890625 22.082031 C 13.890625 22.671875 14.148438 23.199219 14.554688 23.5625 L 14.554688 25.71875 C 14.554688 26.085938 14.847656 26.378906 15.214844 26.378906 L 16.539062 26.378906 C 16.90625 26.378906 17.199219 26.085938 17.199219 25.71875 L 17.199219 23.5625 C 17.605469 23.199219 17.859375 22.671875 17.859375 22.082031 C 17.859375 20.980469 16.976562 20.09375 15.875 20.09375 Z M 15.875 20.09375 "/>
<path style=" stroke:none;fill-rule:nonzero;fill:rgb(25.882354%,25.882354%,25.882354%);fill-opacity:1;" d="M 5.953125 16.125 C 4.855469 16.125 3.96875 17.011719 3.96875 18.109375 L 3.96875 28.695312 C 3.96875 29.792969 4.855469 30.679688 5.953125 30.679688 L 25.800781 30.679688 C 26.898438 30.679688 27.785156 29.792969 27.785156 28.695312 L 27.785156 18.109375 C 27.785156 17.011719 26.898438 16.125 25.800781 16.125 Z M 6.613281 18.109375 L 25.136719 18.109375 C 25.503906 18.109375 25.800781 18.40625 25.800781 18.773438 L 25.800781 28.035156 C 25.800781 28.402344 25.503906 28.695312 25.136719 28.695312 L 6.613281 28.695312 C 6.25 28.695312 5.953125 28.402344 5.953125 28.035156 L 5.953125 18.773438 C 5.953125 18.40625 6.25 18.109375 6.613281 18.109375 Z M 6.613281 18.109375 "/>
</g>
</svg>

<svg xmlns="http://www.w3.org/2000/svg" width="32pt" height="32pt" viewBox="0 0 32 32"><path d="M15.8 1.574c-4.355 0-7.863 3.54-7.863 7.938v6.613h1.985V8.852c0-2.934 2.656-5.293 5.953-5.293 3.3 0 5.957 2.359 5.957 5.293v7.273h1.984V9.512c0-4.399-3.507-7.938-7.863-7.938zm0 0" fill="#424242"/><path d="M15.875 20.094a1.983 1.983 0 0 0-1.984 1.988c0 .59.257 1.117.664 1.48v2.157c0 .367.293.66.66.66h1.324c.367 0 .66-.293.66-.66v-2.157c.406-.363.66-.89.66-1.48a1.98 1.98 0 0 0-1.984-1.988zm0 0" fill="#26a69a"/><path d="M5.953 16.125a1.982 1.982 0 0 0-1.984 1.984v10.586c0 1.098.886 1.985 1.984 1.985h19.848a1.982 1.982 0 0 0 1.984-1.985V18.11a1.982 1.982 0 0 0-1.984-1.984zm.66 1.984h18.524c.367 0 .664.297.664.664v9.262a.66.66 0 0 1-.664.66H6.613a.66.66 0 0 1-.66-.66v-9.262c0-.367.297-.664.66-.664zm0 0" fill="#424242"/></svg>
